flaticon/emoticons/sad-3.svg

<svg xmlns="http://www.w3.org/2000/svg" width="32" height="32" viewBox="0 0 24 24">
    <path d="M 12 14.203125 C 8.757812 14.203125 6.121094 16.839844 6.121094 20.082031 C 6.121094 20.351562 6.339844 20.570312 6.613281 20.570312 C 6.882812 20.570312 7.101562 20.351562 7.101562 20.082031 C 7.101562 17.382812 9.300781 15.183594 12 15.183594 C 14.699219 15.183594 16.898438 17.382812 16.898438 20.082031 C 16.898438 20.351562 17.117188 20.570312 17.386719 20.570312 C 17.660156 20.570312 17.878906 20.351562 17.878906 20.082031 C 17.878906 16.839844 15.242188 14.203125 12 14.203125 Z M 12 14.203125"/>
    <path d="M 12 2.449219 C 11.160156 2.449219 10.316406 2.558594 9.484375 2.757812 C 8.988281 1.359375 8.175781 0 7.101562 0 C 5.238281 0 4.164062 4.089844 4.164062 5.386719 C 4.164062 5.53125 4.175781 5.671875 4.195312 5.808594 C 2.28125 7.820312 1.222656 10.4375 1.222656 13.222656 C 1.222656 19.167969 6.058594 24 12 24 C 17.941406 24 22.777344 19.167969 22.777344 13.222656 C 22.777344 7.28125 17.941406 2.449219 12 2.449219 Z M 7.101562 0.980469 C 7.640625 0.980469 8.292969 2.222656 8.691406 3.480469 C 8.695312 3.484375 8.691406 3.488281 8.695312 3.492188 C 8.921875 4.21875 9.0625 4.945312 9.0625 5.386719 C 9.0625 6.46875 8.183594 7.347656 7.101562 7.347656 C 6.976562 7.347656 6.855469 7.332031 6.734375 7.308594 C 6.695312 7.300781 6.65625 7.289062 6.617188 7.277344 C 6.542969 7.257812 6.464844 7.238281 6.394531 7.210938 C 6.347656 7.191406 6.304688 7.171875 6.261719 7.148438 C 6.199219 7.121094 6.140625 7.085938 6.082031 7.050781 C 6.035156 7.023438 5.992188 6.996094 5.949219 6.964844 C 5.902344 6.929688 5.855469 6.890625 5.8125 6.851562 C 5.765625 6.808594 5.71875 6.769531 5.679688 6.722656 C 5.652344 6.695312 5.628906 6.664062 5.601562 6.632812 C 5.417969 6.40625 5.273438 6.140625 5.203125 5.839844 C 5.199219 5.828125 5.195312 5.820312 5.191406 5.8125 C 5.160156 5.675781 5.144531 5.535156 5.144531 5.386719 C 5.144531 4.003906 6.261719 0.980469 7.101562 0.980469 Z M 12 23.019531 C 6.597656 23.019531 2.203125 18.625 2.203125 13.222656 C 2.203125 10.863281 3.035156 8.625 4.558594 6.851562 C 4.621094 6.964844 4.691406 7.066406 4.769531 7.167969 C 4.769531 7.171875 4.773438 7.171875 4.777344 7.175781 C 4.921875 7.367188 5.09375 7.539062 5.28125 7.691406 C 5.304688 7.710938 5.332031 7.726562 5.355469 7.746094 C 5.421875 7.796875 5.492188 7.84375 5.566406 7.890625 C 5.597656 7.90625 5.625 7.925781 5.65625 7.941406 C 5.753906 7.996094 5.851562 8.046875 5.953125 8.09375 C 5.960938 8.097656 5.972656 8.097656 5.980469 8.101562 C 6.078125 8.144531 6.179688 8.179688 6.285156 8.207031 C 6.320312 8.21875 6.355469 8.226562 6.390625 8.234375 C 6.472656 8.257812 6.554688 8.273438 6.640625 8.285156 C 6.675781 8.292969 6.710938 8.296875 6.746094 8.300781 C 6.863281 8.316406 6.980469 8.328125 7.101562 8.328125 C 8.722656 8.328125 10.039062 7.007812 10.039062 5.386719 C 10.039062 5.300781 10.035156 5.199219 10.027344 5.089844 C 10.019531 4.996094 10.003906 4.890625 9.992188 4.785156 C 9.992188 4.785156 9.992188 4.785156 9.992188 4.78125 C 9.945312 4.449219 9.875 4.082031 9.769531 3.691406 C 10.511719 3.515625 11.257812 3.429688 12 3.429688 C 17.402344 3.429688 21.796875 7.824219 21.796875 13.222656 C 21.796875 18.625 17.402344 23.019531 12 23.019531 Z M 12 23.019531"/>
    <path d="M18.367188 11.753906C16.746094 11.753906 15.429688 10.4375 15.429688 8.816406 15.429688 8.546875 15.210938 8.328125 14.9375 8.328125 14.667969 8.328125 14.449219 8.546875 14.449219 8.816406 14.449219 10.976562 16.207031 12.734375 18.367188 12.734375 18.636719 12.734375 18.855469 12.515625 18.855469 12.246094 18.855469 11.972656 18.636719 11.753906 18.367188 11.753906zM9.550781 8.816406C9.550781 8.546875 9.332031 8.328125 9.0625 8.328125 8.789062 8.328125 8.570312 8.546875 8.570312 8.816406 8.570312 10.4375 7.253906 11.753906 5.632812 11.753906 5.363281 11.753906 5.144531 11.972656 5.144531 12.246094 5.144531 12.515625 5.363281 12.734375 5.632812 12.734375 7.792969 12.734375 9.550781 10.976562 9.550781 8.816406zM9.550781 8.816406"/>
</svg>

<svg xmlns="http://www.w3.org/2000/svg" width="32" height="32" viewBox="0 0 24 24">
    <path d="M12 14.203a5.885 5.885 0 0 0-5.879 5.879.49.49 0 0 0 .98 0c0-2.7 2.2-4.898 4.899-4.898 2.7 0 4.898 2.199 4.898 4.898 0 .27.22.488.489.488a.49.49 0 0 0 .492-.488A5.885 5.885 0 0 0 12 14.203zm0 0"/>
    <path d="M12 2.45c-.84 0-1.684.109-2.516.308C8.988 1.359 8.176 0 7.102 0 5.238 0 4.164 4.09 4.164 5.387c0 .144.012.285.031.422a10.69 10.69 0 0 0-2.972 7.414C1.223 19.168 6.059 24 12 24c5.941 0 10.777-4.832 10.777-10.777C22.777 7.28 17.941 2.449 12 2.449zM7.102.98c.539 0 1.191 1.243 1.59 2.5.003.004 0 .008.003.012.227.727.367 1.453.367 1.895 0 1.082-.878 1.96-1.96 1.96a1.92 1.92 0 0 1-.368-.038c-.039-.008-.078-.02-.117-.032-.074-.02-.152-.039-.222-.066-.047-.02-.09-.04-.133-.063a1.599 1.599 0 0 1-.18-.097 1.545 1.545 0 0 1-.27-.2c-.046-.042-.093-.081-.132-.128-.028-.028-.051-.059-.078-.09a1.976 1.976 0 0 1-.399-.793c-.004-.012-.008-.02-.012-.027a1.897 1.897 0 0 1-.046-.426C5.145 4.004 6.262.98 7.102.98zM12 23.02c-5.402 0-9.797-4.395-9.797-9.797A9.73 9.73 0 0 1 4.56 6.852c.062.113.132.214.21.316 0 .004.004.004.008.008.145.191.317.363.504.515.024.02.051.036.074.055.067.05.137.098.211.145.032.015.059.035.09.05.098.055.196.106.297.153.008.004.02.004.027.008.098.043.2.078.305.105.035.012.07.02.106.027.082.024.164.04.25.051.035.008.07.012.105.016.117.015.234.027.356.027a2.942 2.942 0 0 0 2.937-2.941c0-.086-.004-.188-.012-.297-.007-.094-.023-.2-.035-.305v-.004a9.018 9.018 0 0 0-.222-1.09A9.662 9.662 0 0 1 12 3.43c5.402 0 9.797 4.394 9.797 9.793 0 5.402-4.395 9.797-9.797 9.797zm0 0"/>
    <path d="M18.367 11.754a2.94 2.94 0 0 1-2.937-2.938.49.49 0 0 0-.98 0 3.923 3.923 0 0 0 3.917 3.918.49.49 0 1 0 0-.98zm0 0M9.55 8.816a.49.49 0 1 0-.98 0 2.94 2.94 0 0 1-2.937 2.938.49.49 0 0 0 0 .98A3.923 3.923 0 0 0 9.55 8.816zm0 0"/>
</svg>
